icon/cg/pentagon-down.svg

<svg viewBox="0 0 24 24" fill="none" xmlns="http://www.w3.org/2000/svg" height="1em" width="1em">
  <path fill-rule="evenodd" clip-rule="evenodd" d="M12 8L7 6V16L12 18.5L17 16V6L12 8ZM15 8.95407L12 10.1541L9 8.95407V14.7639L12 16.2639L15 14.7639V8.95407Z" fill="currentColor"/>
</svg>

<svg width="24" height="24" fill="none" xmlns="http://www.w3.org/2000/svg"><path fill-rule="evenodd" clip-rule="evenodd" d="M12 8 7 6v10l5 2.5 5-2.5V6l-5 2Zm3 .954-3 1.2-3-1.2v5.81l3 1.5 3-1.5v-5.81Z" fill="currentColor"/></svg>
